X:1
T:Title
%%score 1 2
L:1/8
Q:1/4=110
M:3/2
K:A
V:1 treble nm="Grand Piano, Soprano"
V:2 bass nm="Choir Pad, Croix Boissi�re, LMD"
V:1
 [CE]2 [DF]2- [DF][CE] [Ec]6 | [DB]2 [DB]2- [DB][CA] [CE]6 | [CA]2 [DG]2- [DG][B,D] [DG]6 | %3
w: By~Daniel~Brink~Towner,~1915 * * * *|||
 [DB]2 [CB]2- [CB][CA] [CE]6 | [CE]2 [DF]2- [DF][CE] [Ec]6 | [Ec]2 [DB]2- [DB][CA] [Fd]6 | %6
w: |||
 [Fd]2 [Ec]2- [Ec][CA] [Ec]6 | [CE]2 [DB]2- [DB][DE] [CA]6 | [EA]2 [DG]2- [DG][C=G] [D^G]6 | %9
w: |||
 [Fd]2 [Ec]2- [Ec][DB] [CE]6 | [CE]2 [DF]2- [DF][DG] [FA]6 | [DF]2 [DA]2- [DA]F [^Ec]6 | %12
w: |||
 [Ec]2 [Ec]2- [Ec][Fd] [Ec]6 | [EB]2 [DE]2- [DE][DB] [CA]6 | [FA]2 [EG]2- [EG][DF] [CE]6 | %15
w: |||
 [Ec]2 [DB]2- [DB][DE] [CA]6- | [CA]4 z4 z4 |] %17
w: ||
V:2
 [A,,A,]2 [A,,A,]2- [A,,A,][A,,A,] [A,,A,]6 | [A,,A,]2 [A,,A,]2- [A,,A,][A,,A,] [A,,A,]6 | %2
 [A,,E,]2 E,2- E,/ z/ E, E,6 | E,2 [A,,E,]2- [A,,E,][A,,E,] [A,,A,]6 | %4
 [A,,A,]2 [A,,A,]2- [A,,A,][A,,A,] [A,,A,]6 | A,2 A,2- A,/ z/ A, [D,A,]6 | %6
 [D,A,]2 [E,A,]2- [E,A,][E,A,] [E,A,]6 | [E,A,]2 [E,G,]2- [E,G,]E, [A,,E,]6 | %8
 [C,A,]2 [E,B,]2- [E,B,][E,^A,] [E,B,]6 | [E,G,]2 [E,A,]2- [E,A,][E,G,] A,6 | %10
 A,2 [D,A,]2- [D,A,][D,A,] [D,D]6 | [D,A,]2 [D,F,]2- [D,F,][D,A,] [C,G,]6 | %12
 [A,,A,]2 [A,,A,]2- [A,,A,][A,,A,] [E,A,]6 | [E,G,]2 [E,G,]2- [E,G,][E,G,] [F,A,]6 | %14
 [D,A,]2 [D,A,]2- [D,A,][D,A,] [E,A,]6 | [E,A,]2 [E,G,]2- [E,G,]E, [A,,E,]6- | [A,,E,]4 z4 z4 |] %17

